X:543
T: AUFERSTEHN JA AUFERSTEHN
N: F1057
O: Europa, Mitteleuropa, Deutschland
R: Trost - Lied
M: 3/4
L: 1/16
K: Eb
 | B,4E4C4 | B,4D4E4
F3AG4F4 | E4D4
E4 | C4B,4E4 | C4B,4A,4 | G,12
G,4E4D2C2 | B,4=A,4B,4
B,4C4D4 | E2DEF4E4 | E4D4z2
E2 | F4E4D4 | E3FG4z2
E2 | F4E4D4 | E12

